public/images/wait.svg

<svg xmlns="http://www.w3.org/2000/svg" width="100" height="100" viewBox="0 0 1024 1024"><path fill="#8BA0B7" d="M297 356q-29 0-37-15.5t11-39.5l47-62 74-100 18-25 10-12q4-6 9-12 27-37 48-63 9-13 18.5-19T513 1q18-1 38 23t46 58q26 34 53 72l28 37q13 19 27 37 4 6 9 11l8 11 8 12 23 28q23 29 18 48t-35 18q-18 0-46.5 1t-47.5 1q-21 1-26 13t-5 34l1 221-1 22q-2 12-8 21.5t-17 16q-11 6.5-30 6.5h-41q-18 1-44 1-35 0-47-16.5T412 624v-93q-1-28-1-55v-50q0-16-1.5-28.5T405 375q-7-18-29-17-16 0-38.5-1t-40.5-1zm710 541q7 25-2 49-3 7-7.5 14.5t-9.5 14q-5 6.5-12 11.5-9 9-20.5 16t-25.5 12q-14 5-29 7.5t-30 2.5H153q-38 0-67.5-14t-47-34q-17.5-20-23-43.5T17 890l13-31q5-14 13-32l15-35 41-97h120l-45 133h682l-46-133h116l40 97q7 19 15 37l13 32 10 25q3 10 3 11zm0 0z"/></svg>

<?xml version="1.0" encoding="utf-8"?>
  <!DOCTYPE svg PUBLIC "-//W3C//DTD SVG 1.1//EN" "http://www.w3.org/Graphics/SVG/1.1/DTD/svg11.dtd">
  <svg version="1.1" xmlns="http://www.w3.org/2000/svg" xmlns:xlink="http://www.w3.org/1999/xlink"   x="0" y="0"   width="100px" height="100px"  viewBox="0 0 1024 1024">
  <path fill="#8BA0B7"  d="M297 356L297 356Q268 356 260 340.5 252 325 271 301L271 301 318 239 392 139 410 114 420 102Q424 96 429 90L429 90Q456 53 477 27L477 27Q486 14 495.5 8 505 2 513 1L513 1Q531 0 551 24 571 48 597 82 623 116 650 154L650 154 678 191Q691 210 705 228L705 228Q709 234 714 239L714 239 722 250 730 262 753 290Q776 319 771 338 766 357 736 356L736 356Q718 356 689.5 357 661 358 642 358L642 358Q621 359 616 371 611 383 611 405L611 405 612 626 611 648Q609 660 603 669.5 597 679 586 685.5 575 692 556 692L556 692 515 692Q497 693 471 693L471 693Q436 693 424 676.5 412 660 412 624L412 624 412 531Q411 503 411 476L411 476 411 426Q411 410 409.5 397.5 408 385 405 375L405 375Q398 357 376 358L376 358Q360 358 337.5 357 315 356 297 356ZM1007 897L1007 897Q1014 922 1005 946L1005 946Q1002 953 997.5 960.5 993 968 988 974.5 983 981 976 986L976 986Q967 995 955.5 1002 944 1009 930 1014 916 1019 901 1021.5 886 1024 871 1024L871 1024 153 1024Q115 1024 85.5 1010 56 996 38.5 976 21 956 15.5 932.5 10 909 17 890L17 890 30 859Q35 845 43 827L43 827 58 792 99 695 219 695 174 828 856 828 810 695 926 695 966 792Q973 811 981 829L981 829 994 861 1004 886Q1007 896 1007 897ZM1007 897L1007 897Z"/>
  </svg>
